assets/dude/That–Johnny.svg

<svg width="364" height="99" viewBox="0 0 364 99" fill="none" xmlns="http://www.w3.org/2000/svg">
<path d="M82.2047 0.719971C73.2447 0.719971 65.6847 6.59997 63.0247 14.58C62.3247 16.54 62.3247 16.96 62.0447 16.96C61.7647 16.96 61.7647 16.54 61.0647 14.58C58.4047 6.59997 50.8447 0.719971 41.8847 0.719971C32.9247 0.719971 25.3647 6.59997 22.7047 14.58C22.0047 16.54 22.0047 16.96 21.7247 16.96C21.4447 16.96 21.4447 16.54 20.7447 14.58C18.0847 6.59997 10.5247 0.719971 1.56469 0.719971C0.864687 0.719971 0.304688 1.27997 0.304688 1.97997V46.08C0.304688 46.78 0.864687 47.34 1.56469 47.34H9.12469C9.82469 47.34 10.3847 46.78 10.3847 46.08V44.82C10.3847 39.92 14.3047 36 19.2047 36H35.5847C36.2847 36 36.8447 36.56 36.8447 37.26V62.46C36.8447 63.16 36.2847 63.72 35.5847 63.72H21.7247C21.0247 63.72 20.4647 64.28 20.4647 64.98V97.74C20.4647 98.44 21.0247 99 21.7247 99C30.6847 99 38.2447 93.26 40.9047 85.14C41.6047 83.18 41.6047 82.76 41.8847 82.76C42.1647 82.76 42.1647 83.18 42.8647 85.14C45.5247 93.26 53.0847 99 62.0447 99C62.7447 99 63.3047 98.44 63.3047 97.74V64.98C63.3047 64.28 62.7447 63.72 62.0447 63.72H48.1847C47.4847 63.72 46.9247 63.16 46.9247 62.46V37.26C46.9247 36.56 47.4847 36 48.1847 36H64.5647C69.4647 36 73.3847 39.92 73.3847 44.82V46.08C73.3847 46.78 73.9447 47.34 74.6447 47.34H82.2047C82.9047 47.34 83.4647 46.78 83.4647 46.08V1.97997C83.4647 1.27997 82.9047 0.719971 82.2047 0.719971Z" fill="#FF1C31"/>
<path d="M170.782 36H184.642C185.342 36 185.902 35.44 185.902 34.74V1.97997C185.902 1.27997 185.342 0.719971 184.642 0.719971C175.682 0.719971 168.122 6.59997 165.462 14.58C164.762 16.54 164.762 16.96 164.482 16.96C164.202 16.96 164.202 16.54 163.502 14.58C160.842 6.59997 153.282 0.719971 144.322 0.719971C143.622 0.719971 143.062 1.27997 143.062 1.97997V34.74C143.062 35.44 143.622 36 144.322 36H158.182C158.882 36 159.442 36.56 159.442 37.26V44.82C159.442 45.52 158.882 46.08 158.182 46.08H117.862C117.162 46.08 116.602 45.52 116.602 44.82V37.26C116.602 36.56 117.162 36 117.862 36H131.722C132.422 36 132.982 35.44 132.982 34.74V1.97997C132.982 1.27997 132.422 0.719971 131.722 0.719971C122.762 0.719971 115.202 6.59997 112.542 14.58C111.842 16.54 111.842 16.96 111.562 16.96C111.282 16.96 111.282 16.54 110.582 14.58C107.922 6.59997 100.362 0.719971 91.402 0.719971C90.702 0.719971 90.142 1.27997 90.142 1.97997V34.74C90.142 35.44 90.702 36 91.402 36H105.262C105.962 36 106.522 36.56 106.522 37.26V62.46C106.522 63.16 105.962 63.72 105.262 63.72H91.402C90.702 63.72 90.142 64.28 90.142 64.98V97.74C90.142 98.44 90.702 99 91.402 99C100.362 99 107.922 93.26 110.582 85.14C111.282 83.18 111.282 82.76 111.562 82.76C111.842 82.76 111.842 83.18 112.542 85.14C115.202 93.26 122.762 99 131.722 99C132.422 99 132.982 98.44 132.982 97.74V64.98C132.982 64.28 132.422 63.72 131.722 63.72H117.862C117.162 63.72 116.602 63.16 116.602 62.46V54.9C116.602 54.2 117.162 53.64 117.862 53.64H158.182C158.882 53.64 159.442 54.2 159.442 54.9V62.46C159.442 63.16 158.882 63.72 158.182 63.72H144.322C143.622 63.72 143.062 64.28 143.062 64.98V97.74C143.062 98.44 143.622 99 144.322 99C153.282 99 160.842 93.26 163.502 85.14C164.202 83.18 164.202 82.76 164.482 82.76C164.762 82.76 164.762 83.18 165.462 85.14C168.122 93.26 175.682 99 184.642 99C185.342 99 185.902 98.44 185.902 97.74V64.98C185.902 64.28 185.342 63.72 184.642 63.72H170.782C170.082 63.72 169.522 63.16 169.522 62.46V37.26C169.522 36.56 170.082 36 170.782 36Z" fill="#FF1C31"/>
<path d="M287.168 63.72L274.988 63.16C274.288 63.16 273.588 63.16 272.888 62.04L257.208 37.4C257.208 37.4 256.928 36.98 256.928 36.56C256.928 36.28 257.208 36 257.768 36H260.708C261.408 36 261.968 35.44 261.968 34.74V1.97997C261.968 1.27997 261.408 0.719971 260.708 0.719971C251.748 0.719971 244.188 6.59997 241.528 14.58C240.828 16.54 240.828 16.96 240.548 16.96C240.268 16.96 240.268 16.54 239.568 14.58C236.908 6.59997 229.348 0.719971 220.388 0.719971C219.688 0.719971 219.128 1.27997 219.128 1.97997V34.74C219.128 35.44 219.688 36 220.388 36H225.008C225.568 36 225.848 36.28 225.848 36.56C225.848 36.98 225.568 37.4 225.568 37.4L209.888 62.04C209.188 63.16 208.768 63.72 208.068 63.72H193.928C193.228 63.72 192.668 64.28 192.668 64.98V97.74C192.668 98.44 193.228 99 193.928 99C202.888 99 210.448 93.26 213.108 85.14C213.808 83.18 213.808 82.76 214.088 82.76C214.368 82.76 214.368 83.18 215.068 85.14C217.728 93.26 225.288 99 234.248 99C234.948 99 235.508 98.44 235.508 97.74V64.98C235.508 64.28 234.948 63.72 234.248 63.72H220.948C220.388 63.72 219.968 63.72 219.968 63.44C219.968 63.02 220.248 62.6 220.248 62.6L223.748 57.14C224.448 56.02 224.868 55.46 225.568 55.46H252.728C253.428 55.46 253.848 56.02 254.548 57.14L257.908 62.32C257.908 62.32 258.188 62.74 258.188 63.16C258.188 63.44 257.908 63.72 257.348 63.72H246.848C246.148 63.72 245.588 64.28 245.588 64.98V97.74C245.588 98.44 246.148 99 246.848 99C255.808 99 263.368 93.26 266.028 85.14C266.728 83.18 266.728 82.76 267.008 82.76C267.288 82.76 267.288 83.18 267.988 85.14C270.648 93.26 278.208 99 287.168 99C287.868 99 288.428 98.44 288.428 97.74V64.98C288.428 64.28 287.868 63.72 287.168 63.72ZM235.788 37.68C236.488 36.56 236.908 36 237.608 36H240.548C241.248 36 241.668 36.56 242.368 37.68L247.828 46.5C247.828 46.5 248.108 46.92 248.108 47.34C248.108 47.62 247.828 47.9 247.268 47.9H231.028C230.468 47.9 230.188 47.62 230.188 47.34C230.188 46.92 230.468 46.5 230.468 46.5L235.788 37.68Z" fill="#FF1C31"/>
<path d="M362.478 0.719971C353.518 0.719971 345.958 6.59997 343.298 14.58C342.598 16.54 342.598 16.96 342.318 16.96C342.038 16.96 342.038 16.54 341.338 14.58C338.678 6.59997 331.118 0.719971 322.158 0.719971C313.198 0.719971 305.638 6.59997 302.978 14.58C302.278 16.54 302.278 16.96 301.998 16.96C301.718 16.96 301.718 16.54 301.018 14.58C298.358 6.59997 290.798 0.719971 281.838 0.719971C281.138 0.719971 280.578 1.27997 280.578 1.97997V46.08C280.578 46.78 281.138 47.34 281.838 47.34H289.398C290.098 47.34 290.658 46.78 290.658 46.08V44.82C290.658 39.92 294.578 36 299.478 36H315.858C316.558 36 317.118 36.56 317.118 37.26V62.46C317.118 63.16 316.558 63.72 315.858 63.72H301.998C301.298 63.72 300.738 64.28 300.738 64.98V97.74C300.738 98.44 301.298 99 301.998 99C310.958 99 318.518 93.26 321.178 85.14C321.878 83.18 321.878 82.76 322.158 82.76C322.438 82.76 322.438 83.18 323.138 85.14C325.798 93.26 333.358 99 342.318 99C343.018 99 343.578 98.44 343.578 97.74V64.98C343.578 64.28 343.018 63.72 342.318 63.72H328.458C327.758 63.72 327.198 63.16 327.198 62.46V37.26C327.198 36.56 327.758 36 328.458 36H344.838C349.738 36 353.658 39.92 353.658 44.82V46.08C353.658 46.78 354.218 47.34 354.918 47.34H362.478C363.178 47.34 363.738 46.78 363.738 46.08V1.97997C363.738 1.27997 363.178 0.719971 362.478 0.719971Z" fill="#FF1C31"/>
</svg>

<svg xmlns="http://www.w3.org/2000/svg" fill="none" viewBox="0 0 364 99"><path fill="#FF1C31" d="M82.205.72c-8.96 0-16.52 5.88-19.18 13.86-.7 1.96-.7 2.38-.98 2.38s-.28-.42-.98-2.38C58.405 6.6 50.845.72 41.885.72c-8.96 0-16.52 5.88-19.18 13.86-.7 1.96-.7 2.38-.98 2.38s-.28-.42-.98-2.38C18.085 6.6 10.525.72 1.565.72c-.7 0-1.26.56-1.26 1.26v44.1c0 .7.56 1.26 1.26 1.26h7.56c.7 0 1.26-.56 1.26-1.26v-1.26c0-4.9 3.92-8.82 8.82-8.82h16.38c.7 0 1.26.56 1.26 1.26v25.2c0 .7-.56 1.26-1.26 1.26h-13.86c-.7 0-1.26.56-1.26 1.26v32.76c0 .7.56 1.26 1.26 1.26 8.96 0 16.52-5.74 19.18-13.86.7-1.96.7-2.38.98-2.38s.28.42.98 2.38A20.097 20.097 0 0 0 62.045 99c.7 0 1.26-.56 1.26-1.26V64.98c0-.7-.56-1.26-1.26-1.26h-13.86c-.7 0-1.26-.56-1.26-1.26v-25.2c0-.7.56-1.26 1.26-1.26h16.38c4.9 0 8.82 3.92 8.82 8.82v1.26c0 .7.56 1.26 1.26 1.26h7.56c.7 0 1.26-.56 1.26-1.26V1.98c0-.7-.56-1.26-1.26-1.26zM170.782 36h13.86c.7 0 1.26-.56 1.26-1.26V1.98c0-.7-.56-1.26-1.26-1.26-8.96 0-16.52 5.88-19.18 13.86-.7 1.96-.7 2.38-.98 2.38s-.28-.42-.98-2.38C160.842 6.6 153.282.72 144.322.72c-.7 0-1.26.56-1.26 1.26v32.76c0 .7.56 1.26 1.26 1.26h13.86c.7 0 1.26.56 1.26 1.26v7.56c0 .7-.56 1.26-1.26 1.26h-40.32c-.7 0-1.26-.56-1.26-1.26v-7.56c0-.7.56-1.26 1.26-1.26h13.86c.7 0 1.26-.56 1.26-1.26V1.98c0-.7-.56-1.26-1.26-1.26-8.96 0-16.52 5.88-19.18 13.86-.7 1.96-.7 2.38-.98 2.38s-.28-.42-.98-2.38C107.922 6.6 100.362.72 91.402.72c-.7 0-1.26.56-1.26 1.26v32.76c0 .7.56 1.26 1.26 1.26h13.86c.7 0 1.26.56 1.26 1.26v25.2c0 .7-.56 1.26-1.26 1.26h-13.86c-.7 0-1.26.56-1.26 1.26v32.76c0 .7.56 1.26 1.26 1.26 8.96 0 16.52-5.74 19.18-13.86.7-1.96.7-2.38.98-2.38s.28.42.98 2.38A20.097 20.097 0 0 0 131.722 99c.7 0 1.26-.56 1.26-1.26V64.98c0-.7-.56-1.26-1.26-1.26h-13.86c-.7 0-1.26-.56-1.26-1.26V54.9c0-.7.56-1.26 1.26-1.26h40.32c.7 0 1.26.56 1.26 1.26v7.56c0 .7-.56 1.26-1.26 1.26h-13.86c-.7 0-1.26.56-1.26 1.26v32.76c0 .7.56 1.26 1.26 1.26 8.96 0 16.52-5.74 19.18-13.86.7-1.96.7-2.38.98-2.38s.28.42.98 2.38A20.097 20.097 0 0 0 184.642 99c.7 0 1.26-.56 1.26-1.26V64.98c0-.7-.56-1.26-1.26-1.26h-13.86c-.7 0-1.26-.56-1.26-1.26v-25.2c0-.7.56-1.26 1.26-1.26zM287.168 63.72l-12.18-.56c-.7 0-1.4 0-2.1-1.12l-15.68-24.64s-.28-.42-.28-.84c0-.28.28-.56.84-.56h2.94c.7 0 1.26-.56 1.26-1.26V1.98c0-.7-.56-1.26-1.26-1.26-8.96 0-16.52 5.88-19.18 13.86-.7 1.96-.7 2.38-.98 2.38s-.28-.42-.98-2.38C236.908 6.6 229.348.72 220.388.72c-.7 0-1.26.56-1.26 1.26v32.76c0 .7.56 1.26 1.26 1.26h4.62c.56 0 .84.28.84.56 0 .42-.28.84-.28.84l-15.68 24.64c-.7 1.12-1.12 1.68-1.82 1.68h-14.14c-.7 0-1.26.56-1.26 1.26v32.76c0 .7.56 1.26 1.26 1.26 8.96 0 16.52-5.74 19.18-13.86.7-1.96.7-2.38.98-2.38s.28.42.98 2.38A20.097 20.097 0 0 0 234.248 99c.7 0 1.26-.56 1.26-1.26V64.98c0-.7-.56-1.26-1.26-1.26h-13.3c-.56 0-.98 0-.98-.28 0-.42.28-.84.28-.84l3.5-5.46c.7-1.12 1.12-1.68 1.82-1.68h27.16c.7 0 1.12.56 1.82 1.68l3.36 5.18s.28.42.28.84c0 .28-.28.56-.84.56h-10.5c-.7 0-1.26.56-1.26 1.26v32.76c0 .7.56 1.26 1.26 1.26 8.96 0 16.52-5.74 19.18-13.86.7-1.96.7-2.38.98-2.38s.28.42.98 2.38A20.097 20.097 0 0 0 287.168 99c.7 0 1.26-.56 1.26-1.26V64.98c0-.7-.56-1.26-1.26-1.26zm-51.38-26.04c.7-1.12 1.12-1.68 1.82-1.68h2.94c.7 0 1.12.56 1.82 1.68l5.46 8.82s.28.42.28.84c0 .28-.28.56-.84.56h-16.24c-.56 0-.84-.28-.84-.56 0-.42.28-.84.28-.84l5.32-8.82z"/><path fill="#FF1C31" d="M362.478.72c-8.96 0-16.52 5.88-19.18 13.86-.7 1.96-.7 2.38-.98 2.38s-.28-.42-.98-2.38C338.678 6.6 331.118.72 322.158.72c-8.96 0-16.52 5.88-19.18 13.86-.7 1.96-.7 2.38-.98 2.38s-.28-.42-.98-2.38C298.358 6.6 290.798.72 281.838.72c-.7 0-1.26.56-1.26 1.26v44.1c0 .7.56 1.26 1.26 1.26h7.56c.7 0 1.26-.56 1.26-1.26v-1.26c0-4.9 3.92-8.82 8.82-8.82h16.38c.7 0 1.26.56 1.26 1.26v25.2c0 .7-.56 1.26-1.26 1.26h-13.86c-.7 0-1.26.56-1.26 1.26v32.76c0 .7.56 1.26 1.26 1.26 8.96 0 16.52-5.74 19.18-13.86.7-1.96.7-2.38.98-2.38s.28.42.98 2.38A20.097 20.097 0 0 0 342.318 99c.7 0 1.26-.56 1.26-1.26V64.98c0-.7-.56-1.26-1.26-1.26h-13.86c-.7 0-1.26-.56-1.26-1.26v-25.2c0-.7.56-1.26 1.26-1.26h16.38c4.9 0 8.82 3.92 8.82 8.82v1.26c0 .7.56 1.26 1.26 1.26h7.56c.7 0 1.26-.56 1.26-1.26V1.98c0-.7-.56-1.26-1.26-1.26z"/></svg>
